public/img/svg/fob_symbol_red.svg

<svg xmlns="http://www.w3.org/2000/svg" style="isolation:isolate" width="24" height="24"><defs><clipPath id="a"><path d="M0 0h24v24H0z"/></clipPath></defs><g clip-path="url(#a)" fill-rule="evenodd"><path d="M3 12a9 9 0 1 1 18 0 9 9 0 0 1-18 0z" fill="#F44336"/><path d="M15 17v-3l2-2V8h-2v1h-2V8h-2v1H9V8H7v4l2 2v3h2v-3h2v3h2m-7-6h8l-1 1H9l-1-1m7 6z" fill="#FFF"/></g></svg>

<?xml version="1.0" standalone="no"?><!-- Generator: Gravit.io --><svg xmlns="http://www.w3.org/2000/svg" xmlns:xlink="http://www.w3.org/1999/xlink" style="isolation:isolate" viewBox="0 0 24 24" width="24" height="24"><defs><clipPath id="_clipPath_Mw2V3w04KRdmL6tgaWO2N2eiy6yvNnT9"><rect width="24" height="24"/></clipPath></defs><g clip-path="url(#_clipPath_Mw2V3w04KRdmL6tgaWO2N2eiy6yvNnT9)"><path d=" M 3 12 C 3 7.033 7.033 3 12 3 C 16.967 3 21 7.033 21 12 C 21 16.967 16.967 21 12 21 C 7.033 21 3 16.967 3 12 Z " fill-rule="evenodd" fill="rgb(244,67,54)"/><path d=" M 15 17 L 15 14 L 17 12 L 17 8 L 15 8 L 15 9 L 13 9 L 13 8 L 11 8 L 11 9 L 9 9 L 9 8 L 7 8 L 7 12 L 9 14 L 9 17 L 11 17 L 11 14 L 13 14 L 13 17 L 15 17 M 8 11 L 16 11 L 15 12 L 9 12 L 8 11 M 15 17 Z " fill-rule="evenodd" fill="rgb(255,255,255)"/></g></svg>
